svg/food/chicken_line.svg

<?xml version="1.0" encoding="UTF-8"?>
<svg width="24px" height="24px" viewBox="0 0 24 24" version="1.1" xmlns="http://www.w3.org/2000/svg" xmlns:xlink="http://www.w3.org/1999/xlink">
    <title>chicken_line</title>
    <g id="Icon" stroke="none" stroke-width="1" fill="none" fill-rule="evenodd">
        <g id="Food" transform="translate(-624.000000, 0.000000)">
            <g id="chicken_line" transform="translate(624.000000, 0.000000)">
                <path d="M24,0 L24,24 L0,24 L0,0 L24,0 Z M12.5935,23.2578 L12.5819,23.2595 L12.5109,23.295 L12.4919,23.2987 L12.4767,23.295 L12.4057,23.2595 C12.3958,23.2564 12.387,23.259 12.3821,23.2649 L12.378,23.2758 L12.3609,23.7031 L12.3659,23.7235 L12.3769,23.7357 L12.4805,23.8097 L12.4953,23.8136 L12.5071,23.8097 L12.6107,23.7357 L12.6233,23.7197 L12.6267,23.7031 L12.6096,23.2758 C12.6076,23.2657 12.601,23.2593 12.5935,23.2578 Z M12.8584,23.1453 L12.8445,23.1473 L12.6598,23.2397 L12.6499,23.2499 L12.6472,23.2611 L12.6651,23.6906 L12.6699,23.7034 L12.6784,23.7105 L12.8793,23.8032 C12.8914,23.8069 12.9022,23.803 12.9078,23.7952 L12.9118,23.7812 L12.8777,23.1665 C12.8753,23.1546 12.8674,23.147 12.8584,23.1453 Z M12.143,23.1473 C12.1332,23.1424 12.1222,23.1453 12.1156,23.1526 L12.1099,23.1665 L12.0758,23.7812 C12.0751,23.7927 12.0828,23.8019 12.0926,23.8046 L12.1083,23.8032 L12.3092,23.7105 L12.3186,23.7024 L12.3225,23.6906 L12.3404,23.2611 L12.3372,23.2485 L12.3278,23.2397 L12.143,23.1473 Z" id="MingCute" fill-rule="nonzero"></path>
                <path d="M12.3726,8.09218 L13.1815,7.28325 C12.6488,6.16812 12.8443,4.79206 13.7679,3.86843 C14.9395,2.69685 16.839,2.69685 18.0106,3.86843 C18.3969,4.25472 18.6557,4.72074 18.7873,5.21306 C19.2796,5.3446 19.7456,5.60345 20.1319,5.989745 C21.3035,7.16132 21.3035,9.06081 20.1319,10.2324 C19.2083,11.156 17.8322,11.3515 16.7171,10.8188 L15.9082,11.6277 C15.9097,11.639 15.9111,11.6504 15.9126,11.6618 C16.0294,12.5885 15.9601,13.6177 15.7601,14.6301 C15.3647,16.6312 14.4134,18.7794 13.0607,20.1321 C11.6943,21.4985 10.0823,22.0627 8.46901,21.9184 C6.88583,21.7768 5.40757,20.9642 4.22187,19.7785 C3.03618,18.5928 2.22362,17.1146 2.082,15.5314 C1.9377,13.9181 2.50193,12.3061 3.86832,10.9397 C5.22102,9.58698 7.36915,8.6357 9.37032,8.24028 C10.3827,8.04025 11.4118,7.97096 12.3386,8.08781 C12.35,8.08923 12.3613,8.09069 12.3726,8.09218 Z M17.9476,7.11303 C18.2262,7.09566 18.5066,7.19287 18.7177,7.40396 C19.1082,7.79448 19.1082,8.42765 18.7177,8.81817 C18.3272,9.2087 17.694,9.2087 17.3035,8.81817 C16.913,8.42765 16.2798,8.42765 15.8893,8.81817 L15.1533,9.55415 C15.0559,9.41927 14.9479,9.29133 14.8285,9.17191 C14.709,9.05247 14.5811,8.94449 14.4462,8.84706 L15.1822,8.11107 C15.5727,7.72054 15.5727,7.08738 15.1822,6.69685 C14.7916,6.30633 14.7916,5.67316 15.1822,5.28264 C15.5727,4.89211 16.2058,4.89211 16.5964,5.28264 C16.8075,5.49373 16.9047,5.77416 16.8873,6.05274 C16.8694,6.33904 16.9754,6.61923 17.1783,6.82207 C17.3811,7.02492 17.6613,7.13088 17.9476,7.11303 Z M5.28253,12.3539 C6.27298,11.3634 8.01394,10.547 9.75801,10.2023 C10.6183,10.0324 11.4258,9.98855 12.0885,10.0721 C12.7653,10.1574 13.1893,10.3612 13.4143,10.5861 C13.6392,10.8111 13.843,11.2351 13.9283,11.9119 C14.0118,12.5746 13.968,13.3821 13.798,14.2424 C13.4534,15.9864 12.6369,17.7274 11.6465,18.7179 C10.6697,19.6946 9.63013,20.0143 8.6472,19.9263 C7.63419,19.8357 6.57171,19.2999 5.63609,18.3643 C4.70046,17.4287 4.16467,16.3662 4.07405,15.3532 C3.98613,14.3703 4.30578,13.3307 5.28253,12.3539 Z" id="形状" fill="#09244B"></path>
            </g>
        </g>
    </g>
</svg>

<svg xmlns="http://www.w3.org/2000/svg" width="24" height="24"><g fill="none" fill-rule="evenodd"><path d="M24 0v24H0V0h24ZM12.594 23.258l-.012.002-.071.035-.02.004-.014-.004-.071-.036c-.01-.003-.019 0-.024.006l-.004.01-.017.428.005.02.01.013.104.074.015.004.012-.004.104-.074.012-.016.004-.017-.017-.427c-.002-.01-.009-.017-.016-.018Zm.264-.113-.014.002-.184.093-.01.01-.003.011.018.43.005.012.008.008.201.092c.012.004.023 0 .029-.008l.004-.014-.034-.614c-.003-.012-.01-.02-.02-.022Zm-.715.002a.023.023 0 0 0-.027.006l-.006.014-.034.614c0 .012.007.02.017.024l.015-.002.201-.093.01-.008.003-.011.018-.43-.003-.012-.01-.01-.184-.092Z"/><path fill="#09244B" d="m12.373 8.092.809-.809a3.001 3.001 0 1 1 5.605-2.07 3 3 0 1 1-2.07 5.606l-.809.809.005.034c.116.926.047 1.956-.153 2.968-.395 2.001-1.347 4.15-2.7 5.502-1.366 1.366-2.978 1.93-4.591 1.786-1.583-.141-3.061-.954-4.247-2.14-1.186-1.185-1.998-2.663-2.14-4.247-.144-1.613.42-3.225 1.786-4.591C5.221 9.587 7.37 8.636 9.37 8.24c1.013-.2 2.042-.269 2.969-.152l.034.004Zm5.575-.979a1 1 0 0 0-2.058 1.705l-.737.736a3.137 3.137 0 0 0-.707-.707l.736-.736a1 1 0 0 0 0-1.414 1 1 0 1 1 1.705-.644 1 1 0 0 0 1.06 1.06Zm-12.665 5.24c.99-.99 2.73-1.806 4.475-2.15.86-.17 1.668-.214 2.33-.13.677.084 1.101.288 1.326.513.225.225.429.65.514 1.326.084.663.04 1.47-.13 2.33-.345 1.744-1.161 3.485-2.152 4.476-.976.977-2.016 1.296-2.999 1.208-1.013-.09-2.075-.626-3.01-1.562-.937-.935-1.472-1.998-1.563-3.01-.088-.984.232-2.023 1.209-3Z"/></g></svg>
